Origami/64x64/apps/kblackbox.svg

<svg width="64" height="64" version="1" xmlns="http://www.w3.org/2000/svg">
 <rect transform="matrix(0,-1,-1,0,0,0)" x="-60" y="-60" width="56" height="56" rx="3" ry="3" style="fill:#4f4f4f"/>
 <path d="m7 4c-1.662 0-3 1.338-3 3v1c0-1.662 1.338-3 3-3h50c1.662 0 3 1.338 3 3v-1c0-1.662-1.338-3-3-3h-50z" style="fill:#ffffff;opacity:.1"/>
 <path d="m4 56v2c0 1.662 1.338 3 3 3h50c1.662 0 3-1.338 3-3v-2c0 1.662-1.338 3-3 3h-50c-1.662 0-3-1.338-3-3z" style="opacity:.2"/>
 <path d="m31.708984 13.001953c-0.954 0-2.424211 0.08687-3.414211 0.263672-0.988 0.1768-1.965688 0.421116-2.929688 0.728516-0.96 0.3094-1.885297 0.662746-2.779296 1.060547-0.892 0.395999-1.718563 0.815812-2.476563 1.257812l2.701172 5.355586c1.5008-0.74184 2.954409-1.369673 4.355469-1.882813 1.4048-0.51122 3.418354-0.765625 4.634914-0.765625 1.39526 0 2.432941 0.325076 3.113281 0.978516 0.678441 0.65156 1.021485 1.485127 1.021485 2.492187 0 0.65152-0.07264 1.724746-0.214844 2.220587-0.1403 0.49392-0.3704 0.966295-0.6875 1.416015-0.31904 0.45164-0.731001 0.905881-1.244141 1.363281-0.51122 0.46124-1.139019 0.982134-1.880859 1.564454-0.84752 0.67074-1.771507 1.320725-2.373047 1.947265-0.59962 0.62652-1.09013 1.272474-1.46875 1.933594-0.38052 0.66312-0.663256 1.35959-0.847656 2.09375-0.18648 0.73224-0.21875 1.547859-0.21875 2.449219v2.521484h6.931641v-2.152344c0-0.56504 0.05028-1.05555 0.146484-1.46875 0.09802-0.41512 0.277749-0.816891 0.542969-1.207031 0.2633-0.3863 0.630636-0.798049 1.097656-1.230469 0.46894-0.43242 1.074566-0.941117 1.816406-1.523437 0.97046-0.77636 1.52362-1.515251 2.25586-2.212891 0.73224-0.6958 1.341938-1.418462 1.830078-2.169922 0.4824-0.7496 0.851656-1.56304 1.097656-2.4375 0.24592-0.8744 0.371094-1.867708 0.371094-2.980468 0-1.5184-0.270507-2.868855-0.810547-4.052735-0.53816-1.18196-1.307426-2.191244-2.316406-3.021484-1.0052-0.83024-1.933713-1.460158-3.382813-1.892578-1.4472-0.43244-3.070294-0.648438-4.871094-0.648438zm-1.169922 30.998047c-0.632613 0-1.226783 0.08082-1.78125 0.238281-0.556324 0.159377-1.039874 0.414274-1.449218 0.767578-0.411183 0.353324-0.732167 0.816464-0.962891 1.388672-0.230685 0.574145-0.345703 1.273999-0.345703 2.103516v2e-3c0 0.79329 0.115288 1.475566 0.345703 2.039062 0.230414 0.563496 0.550469 1.032629 0.962891 1.404297 0.408549 0.36767 0.893514 0.636839 1.449218 0.804688 0.555706 0.167798 1.148096 0.251906 1.78125 0.251906 0.598303 0 1.1668-0.0841 1.705079-0.251953 0.537717-0.168988 1.012626-0.437971 1.423828-0.806641 0.409344-0.370588 0.732638-0.839748 0.972656-1.402344 0.240018-0.564495 0.359375-1.246067 0.359375-2.041015 0-0.829537-0.119357-1.529391-0.359375-2.103516-0.240018-0.572208-0.563312-1.035348-0.972656-1.388672-0.411202-0.353304-0.886111-0.608121-1.423828-0.767578-0.537717-0.157377-1.105963-0.238281-1.705079-0.238281z" style="opacity:.2"/>
 <path d="m31.708984 12.001953c-0.954 0-2.424211 0.08687-3.414211 0.263672-0.988 0.1768-1.965688 0.421116-2.929688 0.728516-0.96 0.3094-1.885297 0.662746-2.779296 1.060547-0.892 0.395999-1.718563 0.815812-2.476563 1.257812l2.701172 5.355586c1.5008-0.74184 2.954409-1.369673 4.355469-1.882813 1.4048-0.51122 3.418354-0.765625 4.634914-0.765625 1.39526 0 2.432941 0.325076 3.113281 0.978516 0.678441 0.65156 1.021485 1.485127 1.021485 2.492187 0 0.65152-0.07264 1.724746-0.214844 2.220587-0.1403 0.49392-0.3704 0.966295-0.6875 1.416015-0.31904 0.45164-0.731001 0.905881-1.244141 1.363281-0.51122 0.46124-1.139019 0.982134-1.880859 1.564454-0.84752 0.67074-1.771507 1.320725-2.373047 1.947265-0.59962 0.62652-1.09013 1.272474-1.46875 1.933594-0.38052 0.66312-0.663256 1.35959-0.847656 2.09375-0.18648 0.73224-0.21875 1.547859-0.21875 2.449219v2.521484h6.931641v-2.152344c0-0.56504 0.05028-1.05555 0.146484-1.46875 0.09802-0.41512 0.277749-0.816891 0.542969-1.207031 0.2633-0.3863 0.630636-0.798049 1.097656-1.230469 0.46894-0.43242 1.074566-0.941117 1.816406-1.523437 0.97046-0.77636 1.52362-1.515251 2.25586-2.212891 0.73224-0.6958 1.341938-1.418462 1.830078-2.169922 0.4824-0.7496 0.851656-1.56304 1.097656-2.4375 0.24592-0.8744 0.371094-1.867708 0.371094-2.980468 0-1.5184-0.270507-2.868855-0.810547-4.052735-0.53816-1.18196-1.307426-2.191244-2.316406-3.021484-1.0052-0.83024-1.933713-1.460158-3.382813-1.892578-1.4472-0.43244-3.070294-0.648438-4.871094-0.648438zm-1.169922 30.998047c-0.632613 0-1.226783 0.08082-1.78125 0.238281-0.556324 0.159377-1.039874 0.414274-1.449218 0.767578-0.411183 0.353324-0.732167 0.816464-0.962891 1.388672-0.230685 0.574145-0.345703 1.273999-0.345703 2.103516v2e-3c0 0.79329 0.115288 1.475566 0.345703 2.039062 0.230414 0.563496 0.550469 1.032629 0.962891 1.404297 0.408549 0.36767 0.893514 0.636839 1.449218 0.804688 0.555706 0.167798 1.148096 0.251906 1.78125 0.251906 0.598303 0 1.1668-0.0841 1.705079-0.251953 0.537717-0.168988 1.012626-0.437971 1.423828-0.806641 0.409344-0.370588 0.732638-0.839748 0.972656-1.402344 0.240018-0.564495 0.359375-1.246067 0.359375-2.041015 0-0.829537-0.119357-1.529391-0.359375-2.103516-0.240018-0.572208-0.563312-1.035348-0.972656-1.388672-0.411202-0.353304-0.886111-0.608121-1.423828-0.767578-0.537717-0.157377-1.105963-0.238281-1.705079-0.238281z" style="fill:#b7b7b7"/>
</svg>

<svg xmlns="http://www.w3.org/2000/svg" width="64" height="64" version="1">
 <rect style="fill:#4f4f4f" width="56" height="56" x="-60" y="-60" rx="3" ry="3" transform="matrix(0,-1,-1,0,0,0)"/>
 <path style="opacity:0.1;fill:#ffffff" d="M 7 4 C 5.338 4 4 5.338 4 7 L 4 8 C 4 6.338 5.338 5 7 5 L 57 5 C 58.662 5 60 6.338 60 8 L 60 7 C 60 5.338 58.662 4 57 4 L 7 4 z"/>
 <path style="opacity:0.2" d="m 4,56 0,2 c 0,1.662 1.338,3 3,3 l 50,0 c 1.662,0 3,-1.338 3,-3 l 0,-2 c 0,1.662 -1.338,3 -3,3 L 7,59 C 5.338,59 4,57.662 4,56 Z"/>
 <path style="opacity:0.2" d="m 31.708984,13.001953 c -0.954,0 -2.424211,0.08687 -3.414211,0.263672 -0.988,0.1768 -1.965688,0.421116 -2.929688,0.728516 -0.96,0.3094 -1.885297,0.662746 -2.779296,1.060547 -0.892,0.395999 -1.718563,0.815812 -2.476563,1.257812 l 2.701172,5.355586 c 1.5008,-0.74184 2.954409,-1.369673 4.355469,-1.882813 1.4048,-0.51122 3.418354,-0.765625 4.634914,-0.765625 1.39526,0 2.432941,0.325076 3.113281,0.978516 0.678441,0.65156 1.021485,1.485127 1.021485,2.492187 0,0.65152 -0.07264,1.724746 -0.214844,2.220587 -0.1403,0.49392 -0.3704,0.966295 -0.6875,1.416015 -0.31904,0.45164 -0.731001,0.905881 -1.244141,1.363281 -0.51122,0.46124 -1.139019,0.982134 -1.880859,1.564454 -0.84752,0.67074 -1.771507,1.320725 -2.373047,1.947265 -0.59962,0.62652 -1.09013,1.272474 -1.46875,1.933594 -0.38052,0.66312 -0.663256,1.35959 -0.847656,2.09375 C 27.03227,35.761537 27,36.577156 27,37.478516 L 27,40 l 6.931641,0 0,-2.152344 c 0,-0.56504 0.05028,-1.05555 0.146484,-1.46875 0.09802,-0.41512 0.277749,-0.816891 0.542969,-1.207031 0.2633,-0.3863 0.630636,-0.798049 1.097656,-1.230469 0.46894,-0.43242 1.074566,-0.941117 1.816406,-1.523437 0.97046,-0.77636 1.52362,-1.515251 2.25586,-2.212891 0.73224,-0.6958 1.341938,-1.418462 1.830078,-2.169922 0.4824,-0.7496 0.851656,-1.56304 1.097656,-2.4375 0.24592,-0.8744 0.371094,-1.867708 0.371094,-2.980468 0,-1.5184 -0.270507,-2.868855 -0.810547,-4.052735 -0.53816,-1.18196 -1.307426,-2.191244 -2.316406,-3.021484 -1.0052,-0.83024 -1.933713,-1.460158 -3.382813,-1.892578 -1.4472,-0.43244 -3.070294,-0.648438 -4.871094,-0.648438 z M 30.539062,44 c -0.632613,0 -1.226783,0.08082 -1.78125,0.238281 -0.556324,0.159377 -1.039874,0.414274 -1.449218,0.767578 -0.411183,0.353324 -0.732167,0.816464 -0.962891,1.388672 C 26.115018,46.968676 26,47.66853 26,48.498047 l 0,0.002 c 0,0.79329 0.115288,1.475566 0.345703,2.039062 0.230414,0.563496 0.550469,1.032629 0.962891,1.404297 0.408549,0.36767 0.893514,0.636839 1.449218,0.804688 C 29.313518,52.915892 29.905908,53 30.539062,53 c 0.598303,0 1.1668,-0.0841 1.705079,-0.251953 0.537717,-0.168988 1.012626,-0.437971 1.423828,-0.806641 0.409344,-0.370588 0.732638,-0.839748 0.972656,-1.402344 C 34.880643,49.974567 35,49.292995 35,48.498047 35,47.66851 34.880643,46.968656 34.640625,46.394531 34.400607,45.822323 34.077313,45.359183 33.667969,45.005859 33.256767,44.652555 32.781858,44.397738 32.244141,44.238281 31.706424,44.080904 31.138178,44 30.539062,44 Z"/>
 <path style="fill:#b7b7b7" d="m 31.708984,12.001953 c -0.954,0 -2.424211,0.08687 -3.414211,0.263672 -0.988,0.1768 -1.965688,0.421116 -2.929688,0.728516 -0.96,0.3094 -1.885297,0.662746 -2.779296,1.060547 -0.892,0.395999 -1.718563,0.815812 -2.476563,1.257812 l 2.701172,5.355586 c 1.5008,-0.74184 2.954409,-1.369673 4.355469,-1.882813 1.4048,-0.51122 3.418354,-0.765625 4.634914,-0.765625 1.39526,0 2.432941,0.325076 3.113281,0.978516 0.678441,0.65156 1.021485,1.485127 1.021485,2.492187 0,0.65152 -0.07264,1.724746 -0.214844,2.220587 -0.1403,0.49392 -0.3704,0.966295 -0.6875,1.416015 -0.31904,0.45164 -0.731001,0.905881 -1.244141,1.363281 -0.51122,0.46124 -1.139019,0.982134 -1.880859,1.564454 -0.84752,0.67074 -1.771507,1.320725 -2.373047,1.947265 -0.59962,0.62652 -1.09013,1.272474 -1.46875,1.933594 -0.38052,0.66312 -0.663256,1.35959 -0.847656,2.09375 C 27.03227,34.761537 27,35.577156 27,36.478516 L 27,39 l 6.931641,0 0,-2.152344 c 0,-0.56504 0.05028,-1.05555 0.146484,-1.46875 0.09802,-0.41512 0.277749,-0.816891 0.542969,-1.207031 0.2633,-0.3863 0.630636,-0.798049 1.097656,-1.230469 0.46894,-0.43242 1.074566,-0.941117 1.816406,-1.523437 0.97046,-0.77636 1.52362,-1.515251 2.25586,-2.212891 0.73224,-0.6958 1.341938,-1.418462 1.830078,-2.169922 0.4824,-0.7496 0.851656,-1.56304 1.097656,-2.4375 0.24592,-0.8744 0.371094,-1.867708 0.371094,-2.980468 0,-1.5184 -0.270507,-2.868855 -0.810547,-4.052735 -0.53816,-1.18196 -1.307426,-2.191244 -2.316406,-3.021484 -1.0052,-0.83024 -1.933713,-1.460158 -3.382813,-1.892578 -1.4472,-0.43244 -3.070294,-0.648438 -4.871094,-0.648438 z M 30.539062,43 c -0.632613,0 -1.226783,0.08082 -1.78125,0.238281 -0.556324,0.159377 -1.039874,0.414274 -1.449218,0.767578 -0.411183,0.353324 -0.732167,0.816464 -0.962891,1.388672 C 26.115018,45.968676 26,46.66853 26,47.498047 l 0,0.002 c 0,0.79329 0.115288,1.475566 0.345703,2.039062 0.230414,0.563496 0.550469,1.032629 0.962891,1.404297 0.408549,0.36767 0.893514,0.636839 1.449218,0.804688 C 29.313518,51.915892 29.905908,52 30.539062,52 c 0.598303,0 1.1668,-0.0841 1.705079,-0.251953 0.537717,-0.168988 1.012626,-0.437971 1.423828,-0.806641 0.409344,-0.370588 0.732638,-0.839748 0.972656,-1.402344 C 34.880643,48.974567 35,48.292995 35,47.498047 35,46.66851 34.880643,45.968656 34.640625,45.394531 34.400607,44.822323 34.077313,44.359183 33.667969,44.005859 33.256767,43.652555 32.781858,43.397738 32.244141,43.238281 31.706424,43.080904 31.138178,43 30.539062,43 Z"/>
</svg>
